X:1
T:Title
T:Mazurka in C♯ Minor
T:F. Chopin
T:Four Mazurkas. Op. 30: No. 4
C:Composer
%%score { ( 1 3 ) | ( 2 4 ) }
L:1/8
Q:1/4=116
M:3/4
K:E
V:1 treble nm="Piano" snm="Pno."
V:3 treble 
V:2 bass 
V:4 bass 
V:1
"^Allegretto""_legato" ([C^^F]6- |"_dim." [CF]6 |!p! [D^F]6- | [DF]6 | %4
"_sotto voce" .E) (3(A/B/A/.G) z ((!>![ce]2 | P[^Bd]))z/([^Ac]/ [Bd]2 [ce]2 | %6
 .[EG]) (3(=A/B/A/.G) z{/[EG]} (!>![ce]2 | P[^Bd])z/!<(!([^Ac]/ [Bd]2 [ce]2 | %8
 .[df])z/([eg]/!<)!!f! [f=a]2!>(!{/b} [fa][eg] | P[df])!>)!z/!mp!([ce]/ [df]2 [eg]2 | %10
!<(! .[df])z/([eg]/!<)! [fa]2{/b} [fa]"_dim."[eg] | %11
 [df][ce] [^Bd]!>(! !>!!^!!fermata![Ac]2 [FA]!>)! |!p! .E) (3(A/B/A/.G) z (!>![ce]2 | %13
 P[^Bd])z/([^Ac]/ [Bd]2 [ce]2 | .[EG])"_cresc." (3(=A/B/A/.G) z{/[EG]} (!>![ce]2 | %15
 P[^Bd])z/!<(!([^Ac]/ [Bd]2 [ce]2!<)! |!f! .[df])z/([eg]/ [fa]2{/b} [fa][eg] | %17
 P[df])z/([ce]/ [df]2 [eg]2 |!<(! .[df])([eg] (3[fa][gb]!^![bd'] [ac'][fa]!<)! | %19
 P[df])z/([ce]/"_dim." [df]2 [eg]2 |!p! .[=df])z/(!>!A/ [df]3 [ce] | %21
 P[^B^d])z/([^Ac]/ [Bd]2 [ce]2) | !>!=A2 x z z ([ce] | P[^B^d])z/([^Ac]/ [Bd]2 [ce]2) | %24
 !>!=A2 x z z ([ce] | P[^B^d])z/([^Ac]/ [Bd]2 [ce]2) | %26
[Q:1/4=86] !>!A2[Q:1/4=116]"^Allegretto" x z !fermata!z ([ce] | P[^B^d])z/([^Ac]/ [Bd]2 [ce]2 | %28
 P[^B^d][^Ac] [Bd]2 [ce]2 | P[^B^d][^Ac] [Bd]2 [ce]2 | [^Bd]2) (g4 | .g2) g4 | (f4 ed | %33
 ez/e/ c2 !>!g2) | (f4 ed | ez/e/ c2 !>!G2) | (f4 ed | ez/e/ c2 !>!g2) | %38
[Q:1/4=110]!>(!"^poco riten." TG6-!>)![Q:1/4=105][Q:1/4=100] | %39
[Q:1/4=95] G4-[Q:1/4=85] G (^^F/G/)[Q:1/4=90] | %40
"_sempre"[Q:1/4=116]"^Allegretto""^a tempo" (c4 B^A!p! | Bz/B/ G2 !>!d2) | (c4 B^A | %43
 Bz/B/ G2 !>!D2) | (c4 B^A | Bz/B/"_dim." G2 !>!d2) | (B>B G2 !>!d2) |!pp! (f>gf>gf>g) | %48
"_dolce" (f4 ed | ez/e/ c2 !>!g2-) |"_cresc." g6- | (g6 | f4!<(! ed | ez/e/ c2 !>!!^!g2)!<)! | %54
!f!"^poco riten." TG6- | G4- G (^^F/G/) |!p! (c4 B^A | Bz/B/ G2 !>!d2-) | d6- | d6 | (c4 B^A | %61
 Bz/B/ G2 !>!d2) | (B>B G2 d2) | (B>B =G2 d2) |"^con anima" (!>!d3 Pc^Bc | e3 d d2) | (f3 f^e>=e | %67
 e4!mp! d2) |"_cresc." (fP^e ^^d2 e2) | (!>!!^!g3 f f2) | (^a3 a^^g>^g | g4 f2 | %72
!ff! [^Af^a])z/([G^eg]/ [^^F^^d^^f]2 [Geg]2 | .[Bgb])z/[^Af^a]/ (!^![Afa]4- | %74
!>(! [Afa]>[Geg] [Geg]2 [^Af^a]>[Geg]!>)! |!mf! .[Geg])z/[Fdf]/ !>!!^![Fdf]4- | %76
!p! [Fdf] z/ [FG]/!<(! ([FG]2 !tenuto![Ece]2)!<)! | z z/ [EF]/!<(! ([EF]2 (!tenuto![DBd]2-)!<)! | %78
!<(! [DBd]z/[C^Ac]/ [^B,^^G^B]2!<)! [CAc]2 |!>(!{/G} [Geg]4 [F-df]2)!>)! |!p! (!>!d3 Pc^Bc | %81
[Q:1/4=125]"_stretto" e3 d d2) |[Q:1/4=135] (f3 f^e>=e |[Q:1/4=145] e4!p! d2) | %84
"_cresc." (fP^e ^^d2 e2) | (!>!!^!g3 f f2) |[Q:1/4=132] (^a3 a^^g>^g |[Q:1/4=120] g4 f2 | %88
!ff![Q:1/4=116]"^Allegretto" [^Af^a])z/([G^eg]/ [^^F^^d^^f]2 [Geg]2 | %89
 .[Bgb])z/[^Af^a]/ !^![Afa]2 z2 |!>(! z3/2 [Geg]/ [Geg]2 [^Af^a]>[Geg]!>)! | %91
!mf! .[Geg]z/[Fdf]/"^ten." [Fdf]2 z2 |!p! z3/2 [FG]/!<(! ([FG]2 !tenuto![Ece]2)!<)! | %93
 z3/2 [EF]/!<(! ([EF]2 !tenuto![DBd]2-)!<)! | ([DBd]3"_dim." [^Ac] [Bd][Ac] | %95
!>(! [Bd]>[^Ac] [Bd]2 [Ac]2)!>)! |!p! (!>![C^^F]6- |"_dim." [CF]6 |!p! [D^F]6- | [DF]6 | %100
"_sotto voce" .E) (3(A/B/A/.G) z ((!>![ce]2 | P[^Bd]))z/[^Ac]/ [Bd]2 [ce]2 | %102
 .[EG] (3(=A/B/A/.G) z{/[EG]} (!>![ce]2 | P[^Bd])z/!<(!([^Ac]/ [Bd]2 [ce]2 | %104
 .[df])z/([eg]/!<)!!f! [f=a]2!>(!{/b} [fa][eg] | P[df])!>)!z/!mp!([ce]/ [df]2 [eg]2 | %106
!<(! .[df])z/([eg]/!<)! [fa]2{/b} [fa]"_dim."[eg] | %107
 [df][ce] [^Bd]!>(! !>!!^!!fermata![Ac]2 [FA]!>)! |!p! .E) (3(A/B/A/.G) z (!>![ce]2 | %109
 P[^Bd])z/([^Ac]/ [Bd]2 [ce]2 | .[EG])"_cresc." (3(=A/B/A/.G) z{/[EG]} (!>![ce]2 | %111
 P[^Bd])z/!<(!([^Ac]/ [Bd]2 [ce]2!<)! |!f! .[df])z/([eg]/ [fa]2{/b} [fa][eg] | %113
 P[df])z/([ce]/ [df]2 [eg]2 |!<(! .[df])([eg] (3[fa][gb]!^![bd'] [ac'][fa]!<)! | %115
 P[df])z/([ce]/"_dim." [df]2 [eg]2 |!p! .[=df])z/(!>!A/ [df]3 [ce] | %117
 P[^B^d])z/([^Ac]/ [Bd]2 [ce]2) | !>!=A2 x z z ([ce] | P[^B^d])z/([^Ac]/ [Bd]2 [ce]2) | %120
 !>!=A2 x z z ([ce] | P[^B^d])z/([^Ac]/ [Bd]2 [ce]2) | %122
[Q:1/4=86] !>!A2[Q:1/4=116]"^Allegretto" x z !fermata!z ([ce] | P[^B^d])z/([^Ac]/ [Bd]2 [ce]2 | %124
!p! P[^B^d][^Ac]"_poco stretto" [Bd]2 [ce]2 |[Q:1/4=120] P[^B^d][^Ac] [Bd]2 [ce]2 | %126
 P[^B^d][^Ac]!p!"_calando" [Bd]2 [ce]2 |[Q:1/4=125] P[^B^d][^Ac] [Bd]2 [ce]2) | %128
!p!"_e dim."{/d} ([^Ac]>[^^G^B] [Ac]2 [=A=c]2 |[Q:1/4=130]{/=c} [^G=B]>[^^F^A] [GB]2 [=G_B]2 | %130
{/_B} [FA]>[^E^G] [FA]2 [=F_A]2 |[Q:1/4=125]{/_A} [E=G]>[^D^F] [EG]2 [DF]2) | %132
!pp![Q:1/4=116]"^Allegretto" (F4 ED | F>F D2 !tenuto!c2) | (F4 ED | F>F D2 !tenuto!d2) | %136
[Q:1/4=106]"_slentando" cA F2[Q:1/4=96] D2 | CA,[Q:1/4=86] F,2 C,2 |!pp! !fermata!E,6 |] %139
V:2
 (E,3 D, E,>D, | E,>D, E,2 D,2 | A,,3 G,, A,,>G,, | A,,>G,, A,,2 G,,2 | %4
!ped! !arpeggio!.[C,,G,,E,]2) !arpeggio![C,,G,,E,]2 !arpeggio![C,,G,,E,]2!ped-up! | %5
!ped! !arpeggio![C,,G,,F,]2 !arpeggio![C,,G,,F,]2!ped-up! !arpeggio![C,,G,,E,]2 | %6
!ped! !arpeggio![C,,G,,E,]2 !arpeggio![C,,G,,E,]2 !arpeggio![C,,G,,E,]2!ped-up! | %7
!ped! !arpeggio![C,,G,,F,]2 !arpeggio![C,,G,,F,]2 !arpeggio![C,,G,,E,]2!ped-up! |!ped! x2 !>!D,4- | %9
 (D,4!ped-up! C,2) |!ped! G,,,2 !arpeggio![G,,D,F,^B,]2 z2 | z6!ped-up! | %12
!ped! !arpeggio![C,,G,,E,]2 !arpeggio![C,,G,,E,]2 !arpeggio![C,,G,,E,]2!ped-up! | %13
!ped! !arpeggio![C,,G,,F,]2 !arpeggio![C,,G,,F,]2!ped-up! !arpeggio![C,,G,,E,]2 | %14
!ped! !arpeggio![C,,G,,E,]2 !arpeggio![C,,G,,E,]2 !arpeggio![C,,G,,E,]2!ped-up! | %15
!ped! !arpeggio![C,,G,,F,]2 !arpeggio![C,,G,,F,]2 !arpeggio![C,,G,,E,]2!ped-up! |!ped! x2 F,4- | %17
 (F,4!ped-up! E,2) |!ped! F,6- | (F,4!ped-up! E,2) |!ped! .F,,2 [F,A,=D]2!ped-up! z2 | %21
 [G,^DF]2 ([G,DF]2 [CE]2) |!ped! .F,,2 !arpeggio!.[F,=DA] z z2!ped-up! | [G,^DF]2 ([G,DF]2 [CE]2) | %24
!ped! .F,,2 !arpeggio!.[F,=DA] z z2!ped-up! | [G,^DF]2 ([G,DF]2 [CE]2) | %26
!ped! .F,,2 !arpeggio!.[F,=DA] !fermata!z2 z!ped-up! | [G,^DF]2 ([G,DF]2 [CE]2 | %28
 [G,D]2) ([G,D]2 [CE]2 | [G,D]2) ([G,D]2 [CE]2 |!ped! [G,D]2) (!>!G4 | .G2) !>!G4!ped-up! | %32
!ped! .G,,z/(^^F,/ [G,^B,^F]2)!ped-up! (G,,2 |!ped! .C,)z/(^^F,/ [G,CE]2)!ped-up! (C,2 | %34
!ped! .G,,)z/(^^F,/ [G,^B,^F]2)!ped-up! (G,,2 |!ped! .C,)z/(^^F,/ [G,CE]2)!ped-up! (C,2 | %36
!ped! .G,,)z/(^^F,/ [G,^B,^F]2)!ped-up! (G,,2 |!ped! .C,)z/(^^F,/ [G,CE]2)!ped-up! C,2 | %38
!ped! .G,,z/(^^C,/ [D,G,B,]2)!ped-up! (G,,2 |!ped! .G,,,)z/(^^C,/ [D,G,B,]2)!ped-up! (G,,2 | %40
!ped! .D,,)z/(^^C,/ [D,^^F,^C]2)!ped-up! (D,,2 |!ped! .G,,)z/(^^C,/ [D,G,B,]2)!ped-up! (G,,2 | %42
!ped! .D,,)z/(^^C,/ [D,^^F,^C]2)!ped-up! (D,,2 |!ped! .G,,)z/(^^C,/ [D,G,B,]2)!ped-up! G,,2 | %44
!ped! .D,,z/(^^C,/ [D,^^F,^C]2)!ped-up! (D,,2 |!ped! .G,,)z/(^^C,/ [D,B,]2)!ped-up! x2 | %46
 (B,>B, G,2 !>!D2) | (F>G F) z z2 |!ped! .G,,z/(^^F,/ [G,^B,^F]2)!ped-up! (G,,2 | %49
!ped! .C,)z/(^^F,/ [G,CE]2)!ped-up! (C,2 |!ped! .G,,)z/(^^F,/ [G,^B,^F]2)!ped-up! (G,,2 | %51
!ped! .C,)z/(^^F,/ [G,CE]2)!ped-up! (C,2 |!ped! .G,,)z/(^^F,/ [G,^B,^F]2)!ped-up! (G,,2 | %53
!ped! .C,)z/(^^F,/ [G,CE]2)!ped-up! C,2 |!ped! .G,,z/(^^C,/ [D,G,B,]2)!ped-up! (G,,2 | %55
!ped! .G,,,)z/(^^C,/ [D,G,B,]2)!ped-up! G,,2 |!ped! .D,,z/(^^C,/ [D,^^F,^C]2)!ped-up! (D,,2 | %57
!ped! .G,,)z/(^^C,/ [D,G,B,]2)!ped-up! (G,,2 |!ped! .D,,)z/(^^C,/ [D,^^F,^C]2)!ped-up! (D,,2 | %59
!ped! .G,,)z/(^^C,/ [D,G,B,]2)!ped-up! (G,,2 |!ped! .D,,)z/(^^C,/ [D,^^F,^C]2)!ped-up! (D,,2 | %61
 .G,,)z/(^^C,/ [D,B,]2) x2 | (B,>B, G,2 D2) | (B,>B, =G,2 D2) | %64
!ped! .F,,2 [F,^A,E]2 [F,A,E]2!ped-up! |!ped! .B,,2 [F,B,D]2 [F,B,D]2!ped-up! | %66
!ped! .^A,,2 [F,CE]2 [F,CE]2!ped-up! |!ped! .B,,2 [F,B,D]2 [F,B,D]2!ped-up! | %68
!ped! ^A,,2 [^A,^E]2 [A,E]2!ped-up! |!ped! .D,,2 [D,^A,F]2 [D,A,F]2!ped-up! | %70
!ped! .^^C,,2 !arpeggio![^^C,^A,^E]2 [C,A,E]2!ped-up! |!ped! .D,,2 [D,^A,F]2 [D,A,F]2!ped-up! | %72
!ped! .[C,,C,]2 [G,B,C^E]2 [G,B,CE]2!ped-up! |!ped! .[F,,,F,,] z/ [F,CF]/ !^![F,CF]4!ped-up! | %74
!ped! .[G,,,G,,]2 [E,B,E]2!ped-up! .[^A,,,^A,,]2 |!ped! .[B,,,B,,] z/ [D,F,B,D]/ !^![D,F,B,D]4 | %76
 .[E,,E,]!ped-up! z/ (^^F,/ G,2 C2) |!ped! .F,, z/ (^E,/!ped-up! F,2 B,2) | %78
!ped! .F,,2 [F,^A,E]2 [F,A,E]2!ped-up! |!ped! (B,,2 [G,B,E]2)!ped-up! [F,B,D]2 | %80
!ped! .F,,2 [F,^A,E]2 [F,A,E]2!ped-up! |!ped! .B,,2 [F,B,D]2 [F,B,D]2!ped-up! | %82
!ped! .^A,,2 [F,CE]2 [F,CE]2!ped-up! |!ped! .B,,2 [F,B,D]2 [F,B,D]2!ped-up! | %84
!ped! ^A,,2 [^A,^E]2 [A,E]2!ped-up! |!ped! .D,,2 [D,^A,F]2 [D,A,F]2!ped-up! | %86
!ped! .^^C,,2 !arpeggio![^^C,^A,^E]2 !arpeggio![C,A,E]2!ped-up! | %87
!ped! .D,,2 [D,^A,F]2 [D,A,F]2!ped-up! |!ped! .[C,,C,]2 [G,B,C^E]2 [G,B,CE]2!ped-up! | %89
!ped! .[F,,,F,,] z/ [F,CF]/ !>!!^![F,CF]2 z2!ped-up! | %90
!ped! .[G,,,G,,]2 [E,B,E]2!ped-up! .[^A,,,^A,,]2 | %91
!ped! .[B,,,B,,] z/ [D,F,B,D]/"_ten." !>![D,F,B,D]2 z2!ped-up! | %92
!ped! .[E,,E,] z/ (^^F,/!ped-up! G,2 C2) |!ped! .F,, z/ (^E,/!ped-up! F,2 B,2) | %94
!ped! .F,,2 z (C!ped-up! DC | D>C D2 C2) | (E,3 D, E,>D, | E,>D, E,2 D,2 | A,,3 G,, A,,>G,, | %99
 A,,>G,, A,,2 G,,2 | %100
!ped! !arpeggio!.[C,,G,,E,]2) !arpeggio![C,,G,,E,]2 !arpeggio![C,,G,,E,]2!ped-up! | %101
!ped! !arpeggio![C,,G,,F,]2 !arpeggio![C,,G,,F,]2!ped-up! !arpeggio![C,,G,,E,]2 | %102
!ped! !arpeggio![C,,G,,E,]2 !arpeggio![C,,G,,E,]2 !arpeggio![C,,G,,E,]2!ped-up! | %103
!ped! !arpeggio![C,,G,,F,]2 !arpeggio![C,,G,,F,]2 !arpeggio![C,,G,,E,]2!ped-up! |!ped! x2 !>!D,4- | %105
 (D,4!ped-up! C,2) |!ped! G,,,2 !arpeggio![G,,D,F,^B,]2 z2 | z6!ped-up! | %108
!ped! !arpeggio![C,,G,,E,]2 !arpeggio![C,,G,,E,]2 !arpeggio![C,,G,,E,]2!ped-up! | %109
!ped! !arpeggio![C,,G,,F,]2 !arpeggio![C,,G,,F,]2!ped-up! !arpeggio![C,,G,,E,]2 | %110
!ped! !arpeggio![C,,G,,E,]2 !arpeggio![C,,G,,E,]2 !arpeggio![C,,G,,E,]2!ped-up! | %111
!ped! !arpeggio![C,,G,,F,]2 !arpeggio![C,,G,,F,]2 !arpeggio![C,,G,,E,]2!ped-up! |!ped! x2 F,4- | %113
 (F,4!ped-up! E,2) |!ped! F,6- | (F,4!ped-up! E,2) |!ped! .F,,2 [F,A,=D]2!ped-up! z2 | %117
 [G,^DF]2 ([G,DF]2 [CE]2) |!ped! .F,,2 !arpeggio!.[F,=DA] z z2!ped-up! | [G,^DF]2 ([G,DF]2 [CE]2) | %120
!ped! .F,,2 !arpeggio!.[F,=DA] z z2!ped-up! | [G,^DF]2 ([G,DF]2 [CE]2) | %122
!ped! .F,,2 !arpeggio!.[F,=DA] !fermata!z2 z!ped-up! | [G,^DF]2 ([G,DF]2 [CE]2 | %124
 [G,D]2) ([G,D]2 [CE]2 | [G,D]2) ([G,D]2 [CE]2 | [G,D]2) ([G,D]2 [^^F,CE]2 | %127
 [G,D]2) ([G,D]2 [=G,CE]2 | [F,CE]2) ([F,CE]2 [=F,=C_E]2 | [E,=B,=D]2) ([E,B,D]2 [_E,_B,_D]2 | %130
 [=D,A,=C]2) ([D,A,C]2 [_D,_A,_C]2 | [=C,=G,_B,]2) ([C,G,B,]2 [=B,,F,A,]2 | !>!F,6) | !>!F,6 | %134
 !>!F,6 | !>!F,6 | z6 | z6 | !fermata![C,,G,,]6 |] %139
V:3
 x6 | x6 | (C3 ^B, C>B, | C>^B, C2 B,2 | C) (FE) x3 | x6 | x (F.E) x3 | x6 | x6 | x6 | x6 | x6 | %12
 C (F.E) x3 | x6 | x (F.E) x3 | x6 | x6 | x6 | x6 | x6 | x6 | x6 | (3A[=df]a .[=d'f'] x3 | x6 | %24
 A/[=df]/a/[=d'f']/ .a' x3 | x6 | A/4[=df]/4a/4[=d'f']/4a'/4f'/4d'/4a/4 .=d'' x3 | x6 | x6 | x6 | %30
 x6 | x6 | x6 | x6 | x6 | x6 | x6 | x6 | x6 | x6 | x6 | x6 | x6 | x6 | x6 | x6 | x6 | x6 | x6 | %49
 x6 | (f4 ed | ez/e/ c2 !>!G2-) | G6- | G2 x4 | x6 | x6 | x6 | x6 | (c4 B^A | Bz/B/ G2 !>!D2-) | %60
 D6- | D2 x4 | x2 G4- | G2 !>!=G4- | G2 F2 F2- | F2 [F=B]2 [F-B]2 | F2!<(! [Fc]2 [F-c]2 | %67
 F2 [FB]2!<)! [FB]2 | z2 [G^^c]2 [Gc]2 | z2 [^Ad]2 [A-d]2 | ^A2 [A^e]2 [A-e]2 | ^A2 [Ad]2 [Ad]2 | %72
 x6 | x6 | x6 | x6 | x6 | x6 | x6 | x6 | F2 F2 F2- | F2 [FB]2 [F-B]2 | F2 [Fc]2 [F-c]2 | %83
 F2 [FB]2 [FB]2 | z2 [G^^c]2 [Gc]2 | z2 [^Ad]2 [Ad]2 | ^A2 [A^e]2 [A-e]2 | ^A2 [Ad]2 [Ad]2 | x6 | %89
 x6 | x6 | x6 | x6 | x6 | x6 | x6 | x6 | x6 | C3 ^B, C>B, | C>^B, C2 B,2 | C (FE) x3 | x6 | %102
 x (F.E) x3 | x6 | x6 | x6 | x6 | x6 | C (F.E) x3 | x6 | x (F.E) x3 | x6 | x6 | x6 | x6 | x6 | x6 | %117
 x6 | (3A[=df]a .[=d'f'] x3 | x6 | A/[=df]/a/[=d'f']/ .a' x3 | x6 | %122
 A/4[=df]/4a/4[=d'f']/4a'/4f'/4d'/4a/4 .=d'' x3 | x6 | x6 | x6 | x6 | x6 | x6 | x6 | x6 | x6 | C6 | %133
 C6 | C6 | C6 | x6 | x6 | x6 |] %139
V:4
 x6 | x6 | x6 | x6 | x6 | x6 | x6 | x6 | .G,,,2 !arpeggio![G,,F,^B,]2 [G,,F,B,]2 | %9
 !arpeggio![G,,F,^B,]2 !arpeggio![G,,F,B,]2 !arpeggio![G,,E,C]2 | x6 | x6 | x6 | x6 | x6 | x6 | %16
 .B,,,2 !arpeggio![B,,A,D]2 [B,,A,D]2 | %17
 !arpeggio![B,,A,D]2 !arpeggio![B,,A,D]2 !arpeggio![B,,G,E]2 | %18
 !arpeggio![B,,A,D]2 !arpeggio![B,,A,D]2 z2 | %19
 !arpeggio![B,,A,D]2 !arpeggio![B,,A,D]2 !arpeggio![E,G,E]2 | x6 | x6 | x6 | x6 | x6 | x6 | x6 | %27
 x6 | x6 | x6 | x6 | x6 | x6 | x6 | x6 | x6 | x6 | x6 | x6 | x6 | x6 | x6 | x6 | x6 | x6 | %45
 x2 (G,2 D2) | x6 | x6 | x6 | x6 | x6 | x6 | x6 | x6 | x6 | x6 | x6 | x6 | x6 | x6 | x6 | %61
 x2 (G,2 D2) | x2 G,4- | G,2 !>!=G,4 | x6 | x6 | x6 | x6 | x6 | x6 | x6 | x6 | x6 | x6 | x6 | x6 | %76
 x6 | x6 | x6 | x6 | x6 | x6 | x6 | x6 | x6 | x6 | x6 | x6 | x6 | x6 | x6 | x6 | x6 | x6 | x6 | %95
 x6 | x6 | x6 | x6 | x6 | x6 | x6 | x6 | x6 | .G,,,2 !arpeggio![G,,F,^B,]2 [G,,F,B,]2 | %105
 !arpeggio![G,,F,^B,]2 !arpeggio![G,,F,B,]2 !arpeggio![G,,E,C]2 | x6 | x6 | x6 | x6 | x6 | x6 | %112
 .B,,,2 !arpeggio![B,,A,D]2 [B,,A,D]2 | %113
 !arpeggio![B,,A,D]2 !arpeggio![B,,A,D]2 !arpeggio![B,,G,E]2 | %114
 !arpeggio![B,,A,D]2 !arpeggio![B,,A,D]2 z2 | %115
 !arpeggio![B,,A,D]2 !arpeggio![B,,A,D]2 !arpeggio![E,G,E]2 | x6 | x6 | x6 | x6 | x6 | x6 | x6 | %123
 x6 | x6 | x6 | x6 | x6 | x6 | x6 | x6 | x6 | (A,,>G,, A,,2 D,,2) | (A,,>G,, A,,2 D,,2) | %134
 (A,,>G,, A,,2 D,,2) | (A,,>G,, A,,2) z2 | x6 | x6 | x6 |] %139

